Image-Library/SVGs/grm.svg

<?xml version="1.0" encoding="UTF-8" standalone="no"?>
<svg
   xmlns:dc="http://purl.org/dc/elements/1.1/"
   xmlns:cc="http://creativecommons.org/ns#"
   xmlns:rdf="http://www.w3.org/1999/02/22-rdf-syntax-ns#"
   xmlns:svg="http://www.w3.org/2000/svg"
   xmlns="http://www.w3.org/2000/svg"
   xmlns:sodipodi="http://sodipodi.sourceforge.net/DTD/sodipodi-0.dtd"
   xmlns:inkscape="http://www.inkscape.org/namespaces/inkscape"
   width="24px"
   height="24px"
   viewBox="0 0 24 24"
   fill="none"
   version="1.1"
   id="svg845"
   sodipodi:docname="grm.svg"
   inkscape:version="1.0.2-2 (e86c870879, 2021-01-15)">
  <metadata
     id="metadata851">
    <rdf:RDF>
      <cc:Work
         rdf:about="">
        <dc:format>image/svg+xml</dc:format>
        <dc:type
           rdf:resource="http://purl.org/dc/dcmitype/StillImage" />
      </cc:Work>
    </rdf:RDF>
  </metadata>
  <defs
     id="defs849" />
  <sodipodi:namedview
     pagecolor="#ffffff"
     bordercolor="#666666"
     borderopacity="1"
     objecttolerance="10"
     gridtolerance="10"
     guidetolerance="10"
     inkscape:pageopacity="0"
     inkscape:pageshadow="2"
     inkscape:window-width="1591"
     inkscape:window-height="686"
     id="namedview847"
     showgrid="false"
     inkscape:zoom="14.853306"
     inkscape:cx="-15.87757"
     inkscape:cy="3.0832849"
     inkscape:window-x="0"
     inkscape:window-y="0"
     inkscape:window-maximized="0"
     inkscape:current-layer="svg845" />
  <path
     d="m 19.25,9 c 0,0.41421 0.3358,0.75 0.75,0.75 0.4142,0 0.75,-0.33579 0.75,-0.75 z M 9,21.75 C 9.41421,21.75 9.75,21.4142 9.75,21 9.75,20.5858 9.41421,20.25 9,20.25 Z m 2.142476,-7.134131 c 0.01852,0.775761 0.01895,0.656091 0.0024,1.497012 l -5.2880498,0.05311 c 0.00414,-0.718387 0.00748,-0.783998 0.012853,-1.502513 z M 5.869699,13.003886 c 2.0300876,-0.01661 5.632609,-0.06203 7.403146,-0.04208 l -0.03793,-1.497011 -7.3639372,0.03487 z M 12,19 11.4697,18.4697 11.25,18.6893 V 19 Z m 6,-6 0.5303,-0.5303 c -0.2929,-0.2929 -0.7677,-0.2929 -1.0606,0 z m 2,2 0.5303,0.5303 c 0.2929,-0.2929 0.2929,-0.7677 0,-1.0606 z m -6,6 v 0.75 h 0.3107 l 0.2196,-0.2197 z m -2,0 h -0.75 c 0,0.4142 0.3358,0.75 0.75,0.75 z M 6,5.75 H 18 V 4.25 H 6 Z M 4.75,19 V 7 H 3.25 V 19 Z M 6,20.25 C 5.30964,20.25 4.75,19.6904 4.75,19 h -1.5 c 0,1.5188 1.23122,2.75 2.75,2.75 z M 18,5.75 c 0.6904,0 1.25,0.55964 1.25,1.25 h 1.5 C 20.75,5.48122 19.5188,4.25 18,4.25 Z M 6,4.25 C 4.48122,4.25 3.25,5.48122 3.25,7 h 1.5 C 4.75,6.30964 5.30964,5.75 6,5.75 Z M 19.25,7 v 2 h 1.5 V 7 Z M 9,20.25 H 6 v 1.5 H 9 Z M 5.7614227,9.7981532 15.831464,9.7029432 15.760054,7.822095 5.7376187,7.917305 Z M 12.5303,19.5303 l 6,-6 -1.0606,-1.0606 -6,6 z m 4.9394,-6 2,2 1.0606,-1.0606 -2,-2 z m 2,0.9394 -6,6 1.0606,1.0606 6,-6 z M 14,20.25 h -2 v 1.5 h 2 z M 12.75,21 v -2 h -1.5 v 2 z m 3.2197,-5.9697 2,2 1.0606,-1.0606 -2,-2 z"
     fill="#006633"
     id="path843"
     sodipodi:nodetypes="cscccscccccccccccccccccccccccccccccccccccccccccccccccccccccccccccccccccccccccccccccccccccccccccccccccccccccccc" />
</svg>

<svg width="24px" height="24px" viewBox="0 0 24 24" fill="none" xmlns="http://www.w3.org/2000/svg">
<path d="M19.25 9C19.25 9.41421 19.5858 9.75 20 9.75C20.4142 9.75 20.75 9.41421 20.75 9H19.25ZM9 21.75C9.41421 21.75 9.75 21.4142 9.75 21C9.75 20.5858 9.41421 20.25 9 20.25V21.75ZM15.75 3C15.75 2.58579 15.4142 2.25 15 2.25C14.5858 2.25 14.25 2.58579 14.25 3H15.75ZM14.25 7C14.25 7.41421 14.5858 7.75 15 7.75C15.4142 7.75 15.75 7.41421 15.75 7H14.25ZM9.75 3C9.75 2.58579 9.41421 2.25 9 2.25C8.58579 2.25 8.25 2.58579 8.25 3H9.75ZM8.25 7C8.25 7.41421 8.58579 7.75 9 7.75C9.41421 7.75 9.75 7.41421 9.75 7H8.25ZM4 10.25C3.58579 10.25 3.25 10.5858 3.25 11C3.25 11.4142 3.58579 11.75 4 11.75V10.25ZM9 11.75C9.41421 11.75 9.75 11.4142 9.75 11C9.75 10.5858 9.41421 10.25 9 10.25V11.75ZM12 19L11.4697 18.4697L11.25 18.6893V19H12ZM18 13L18.5303 12.4697C18.2374 12.1768 17.7626 12.1768 17.4697 12.4697L18 13ZM20 15L20.5303 15.5303C20.8232 15.2374 20.8232 14.7626 20.5303 14.4697L20 15ZM14 21V21.75H14.3107L14.5303 21.5303L14 21ZM12 21H11.25C11.25 21.4142 11.5858 21.75 12 21.75V21ZM6 5.75H18V4.25H6V5.75ZM4.75 19V7H3.25V19H4.75ZM6 20.25C5.30964 20.25 4.75 19.6904 4.75 19H3.25C3.25 20.5188 4.48122 21.75 6 21.75V20.25ZM18 5.75C18.6904 5.75 19.25 6.30964 19.25 7H20.75C20.75 5.48122 19.5188 4.25 18 4.25V5.75ZM6 4.25C4.48122 4.25 3.25 5.48122 3.25 7H4.75C4.75 6.30964 5.30964 5.75 6 5.75V4.25ZM19.25 7V9H20.75V7H19.25ZM9 20.25H6V21.75H9V20.25ZM14.25 3V7H15.75V3H14.25ZM8.25 3V7H9.75V3H8.25ZM4 11.75H9V10.25H4V11.75ZM12.5303 19.5303L18.5303 13.5303L17.4697 12.4697L11.4697 18.4697L12.5303 19.5303ZM17.4697 13.5303L19.4697 15.5303L20.5303 14.4697L18.5303 12.4697L17.4697 13.5303ZM19.4697 14.4697L13.4697 20.4697L14.5303 21.5303L20.5303 15.5303L19.4697 14.4697ZM14 20.25H12V21.75H14V20.25ZM12.75 21V19H11.25V21H12.75ZM15.9697 15.0303L17.9697 17.0303L19.0303 15.9697L17.0303 13.9697L15.9697 15.0303Z" fill="#006633"/>
</svg>
